symbols/web/precision_manufacturing/materialsymbolsrounded/precision_manufacturing_wght200gradN25_24px.svg

<svg xmlns="http://www.w3.org/2000/svg" height="24" width="24"><path d="M5.65 19.275q-.325 0-.537-.225-.213-.225-.213-.525 0-.325.213-.538.212-.212.537-.212h2.225L5.3 9.375q-.65-.325-1.037-.887-.388-.563-.388-1.338 0-1.025.725-1.738.725-.712 1.725-.712.925 0 1.575.562.65.563.875 1.438h3.65V5.15q0-.2.113-.325.112-.125.337-.125.175 0 .288.112.112.113.137.263v.275l1.825-1.65q.2-.225.45-.25.25-.025.5.1l3.7 1.725q.2.1.287.25.088.15-.012.325-.075.2-.238.238-.162.037-.337-.038L15.7 4.275 13.35 6.45v1.375l2.35 2.15 3.775-1.75q.175-.1.337-.05.163.05.238.225.1.2.012.35-.087.15-.287.25l-3.7 1.725q-.25.125-.5.087-.25-.037-.45-.237L13.3 8.95v.275q-.025.175-.137.275-.113.1-.288.1-.225 0-.337-.125-.113-.125-.113-.325V7.625H8.75q-.075.35-.25.675-.175.325-.375.55l4.75 8.925h3.075q.325 0 .55.212.225.213.225.538 0 .3-.225.525-.225.225-.55.225Zm.675-10.6q.625 0 1.087-.45.463-.45.463-1.075t-.463-1.075q-.462-.45-1.087-.45t-1.075.45q-.45.45-.45 1.075t.45 1.075q.45.45 1.075.45Zm2.55 9.1h2.975l-4.525-8.4q-.175.1-.462.162-.288.063-.513.038Zm2.975 0Z"/></svg>

<svg xmlns="http://www.w3.org/2000/svg" height="24" width="24"><path d="M5.65 19.275Q5.325 19.275 5.113 19.05Q4.9 18.825 4.9 18.525Q4.9 18.2 5.113 17.987Q5.325 17.775 5.65 17.775H7.875L5.3 9.375Q4.65 9.05 4.263 8.488Q3.875 7.925 3.875 7.15Q3.875 6.125 4.6 5.412Q5.325 4.7 6.325 4.7Q7.25 4.7 7.9 5.262Q8.55 5.825 8.775 6.7H12.425V5.15Q12.425 4.95 12.538 4.825Q12.65 4.7 12.875 4.7Q13.05 4.7 13.163 4.812Q13.275 4.925 13.3 5.075V5.35L15.125 3.7Q15.325 3.475 15.575 3.45Q15.825 3.425 16.075 3.55L19.775 5.275Q19.975 5.375 20.062 5.525Q20.15 5.675 20.05 5.85Q19.975 6.05 19.812 6.088Q19.65 6.125 19.475 6.05L15.7 4.275L13.35 6.45V7.825L15.7 9.975L19.475 8.225Q19.65 8.125 19.812 8.175Q19.975 8.225 20.05 8.4Q20.15 8.6 20.062 8.75Q19.975 8.9 19.775 9L16.075 10.725Q15.825 10.85 15.575 10.812Q15.325 10.775 15.125 10.575L13.3 8.95V9.225Q13.275 9.4 13.163 9.5Q13.05 9.6 12.875 9.6Q12.65 9.6 12.538 9.475Q12.425 9.35 12.425 9.15V7.625H8.75Q8.675 7.975 8.5 8.3Q8.325 8.625 8.125 8.85L12.875 17.775H15.95Q16.275 17.775 16.5 17.987Q16.725 18.2 16.725 18.525Q16.725 18.825 16.5 19.05Q16.275 19.275 15.95 19.275ZM6.325 8.675Q6.95 8.675 7.412 8.225Q7.875 7.775 7.875 7.15Q7.875 6.525 7.412 6.075Q6.95 5.625 6.325 5.625Q5.7 5.625 5.25 6.075Q4.8 6.525 4.8 7.15Q4.8 7.775 5.25 8.225Q5.7 8.675 6.325 8.675ZM8.875 17.775H11.85L7.325 9.375Q7.15 9.475 6.863 9.537Q6.575 9.6 6.35 9.575ZM11.85 17.775Q11.85 17.775 11.85 17.775Q11.85 17.775 11.85 17.775Z"/></svg>
